X: 41103
T: Trip To Skye
R: waltz
M: 3/4
K: Bminor
|:~f2 ed cB|ce AB ce|~d2 ce dc|1 ,3 ~d2 B2 B2:|2 ,4 BA FE FA||
|:~F2 Bc d2|~F2 Bc d2|ce AB ce|1 ,3 dc BA FE:|2 ,4 ~d2 B2 B2||

